output/footprints/LKBD_PCBFab.pretty/JLCPCB_SerialNumber_2x10mm.svg

<?xml version="1.0" standalone="no"?>
 <!DOCTYPE svg PUBLIC "-//W3C//DTD SVG 1.1//EN" 
 "http://www.w3.org/Graphics/SVG/1.1/DTD/svg11.dtd"> 
<svg
  xmlns:svg="http://www.w3.org/2000/svg"
  xmlns="http://www.w3.org/2000/svg"
  xmlns:xlink="http://www.w3.org/1999/xlink"
  version="1.1"
  width="23.6728mm" height="4.0894mm" viewBox="0.0000 0.0000 23.6728 4.0894">
<title>SVG Image created as JLCPCB_SerialNumber_2x10mm.svg date 2025/05/12 22:52:38 </title>
  <desc>Image generated by PCBNEW </desc>
<g style="fill:#000000; fill-opacity:1.0000;stroke:#000000; stroke-opacity:1.0000;
stroke-linecap:round; stroke-linejoin:round;"
 transform="translate(0 0) scale(1 1)">
<path style="fill:#F2EDA1; fill-opacity:1.0000; stroke:none;fill-rule:evenodd;"
d="M 6.8393,0.0500
16.8393,0.0500
16.8393,2.0500
6.8393,2.0500
Z" /> 
</g>
<g style="fill:none; 
stroke:#AFAFAF; stroke-width:0.1500; stroke-opacity:1; 
stroke-linecap:round; stroke-linejoin:round;">
<text x="11.8393" y="3.7500"
textLength="23.6786" font-size="1.3333" lengthAdjust="spacingAndGlyphs"
text-anchor="middle" opacity="0" stroke-opacity="0">JLCPCB_SerialNumber_2x10mm</text>
<g class="stroked-text"><desc>JLCPCB_SerialNumber_2x10mm</desc>
<path d="M0.6488 2.7048
L0.6488 3.4191
" />
<path d="M0.6488 3.4191
L0.6012 3.5620
" />
<path d="M0.6012 3.5620
L0.5060 3.6572
" />
<path d="M0.5060 3.6572
L0.3631 3.7048
" />
<path d="M0.3631 3.7048
L0.2679 3.7048
" />
<path d="M1.6012 3.7048
L1.1250 3.7048
" />
<path d="M1.1250 3.7048
L1.1250 2.7048
" />
<path d="M2.5060 3.6096
L2.4583 3.6572
" />
<path d="M2.4583 3.6572
L2.3155 3.7048
" />
<path d="M2.3155 3.7048
L2.2202 3.7048
" />
<path d="M2.2202 3.7048
L2.0774 3.6572
" />
<path d="M2.0774 3.6572
L1.9821 3.5620
" />
<path d="M1.9821 3.5620
L1.9345 3.4667
" />
<path d="M1.9345 3.4667
L1.8869 3.2762
" />
<path d="M1.8869 3.2762
L1.8869 3.1334
" />
<path d="M1.8869 3.1334
L1.9345 2.9429
" />
<path d="M1.9345 2.9429
L1.9821 2.8477
" />
<path d="M1.9821 2.8477
L2.0774 2.7524
" />
<path d="M2.0774 2.7524
L2.2202 2.7048
" />
<path d="M2.2202 2.7048
L2.3155 2.7048
" />
<path d="M2.3155 2.7048
L2.4583 2.7524
" />
<path d="M2.4583 2.7524
L2.5060 2.8001
" />
<path d="M2.9345 3.7048
L2.9345 2.7048
" />
<path d="M2.9345 2.7048
L3.3155 2.7048
" />
<path d="M3.3155 2.7048
L3.4107 2.7524
" />
<path d="M3.4107 2.7524
L3.4583 2.8001
" />
<path d="M3.4583 2.8001
L3.5060 2.8953
" />
<path d="M3.5060 2.8953
L3.5060 3.0382
" />
<path d="M3.5060 3.0382
L3.4583 3.1334
" />
<path d="M3.4583 3.1334
L3.4107 3.1810
" />
<path d="M3.4107 3.1810
L3.3155 3.2286
" />
<path d="M3.3155 3.2286
L2.9345 3.2286
" />
<path d="M4.5060 3.6096
L4.4583 3.6572
" />
<path d="M4.4583 3.6572
L4.3155 3.7048
" />
<path d="M4.3155 3.7048
L4.2202 3.7048
" />
<path d="M4.2202 3.7048
L4.0774 3.6572
" />
<path d="M4.0774 3.6572
L3.9821 3.5620
" />
<path d="M3.9821 3.5620
L3.9345 3.4667
" />
<path d="M3.9345 3.4667
L3.8869 3.2762
" />
<path d="M3.8869 3.2762
L3.8869 3.1334
" />
<path d="M3.8869 3.1334
L3.9345 2.9429
" />
<path d="M3.9345 2.9429
L3.9821 2.8477
" />
<path d="M3.9821 2.8477
L4.0774 2.7524
" />
<path d="M4.0774 2.7524
L4.2202 2.7048
" />
<path d="M4.2202 2.7048
L4.3155 2.7048
" />
<path d="M4.3155 2.7048
L4.4583 2.7524
" />
<path d="M4.4583 2.7524
L4.5060 2.8001
" />
<path d="M5.2679 3.1810
L5.4107 3.2286
" />
<path d="M5.4107 3.2286
L5.4583 3.2762
" />
<path d="M5.4583 3.2762
L5.5060 3.3715
" />
<path d="M5.5060 3.3715
L5.5060 3.5143
" />
<path d="M5.5060 3.5143
L5.4583 3.6096
" />
<path d="M5.4583 3.6096
L5.4107 3.6572
" />
<path d="M5.4107 3.6572
L5.3155 3.7048
" />
<path d="M5.3155 3.7048
L4.9345 3.7048
" />
<path d="M4.9345 3.7048
L4.9345 2.7048
" />
<path d="M4.9345 2.7048
L5.2679 2.7048
" />
<path d="M5.2679 2.7048
L5.3631 2.7524
" />
<path d="M5.3631 2.7524
L5.4107 2.8001
" />
<path d="M5.4107 2.8001
L5.4583 2.8953
" />
<path d="M5.4583 2.8953
L5.4583 2.9905
" />
<path d="M5.4583 2.9905
L5.4107 3.0858
" />
<path d="M5.4107 3.0858
L5.3631 3.1334
" />
<path d="M5.3631 3.1334
L5.2679 3.1810
" />
<path d="M5.2679 3.1810
L4.9345 3.1810
" />
<path d="M5.6964 3.8001
L6.4583 3.8001
" />
<path d="M6.6488 3.6572
L6.7917 3.7048
" />
<path d="M6.7917 3.7048
L7.0298 3.7048
" />
<path d="M7.0298 3.7048
L7.1250 3.6572
" />
<path d="M7.1250 3.6572
L7.1726 3.6096
" />
<path d="M7.1726 3.6096
L7.2202 3.5143
" />
<path d="M7.2202 3.5143
L7.2202 3.4191
" />
<path d="M7.2202 3.4191
L7.1726 3.3239
" />
<path d="M7.1726 3.3239
L7.1250 3.2762
" />
<path d="M7.1250 3.2762
L7.0298 3.2286
" />
<path d="M7.0298 3.2286
L6.8393 3.1810
" />
<path d="M6.8393 3.1810
L6.7440 3.1334
" />
<path d="M6.7440 3.1334
L6.6964 3.0858
" />
<path d="M6.6964 3.0858
L6.6488 2.9905
" />
<path d="M6.6488 2.9905
L6.6488 2.8953
" />
<path d="M6.6488 2.8953
L6.6964 2.8001
" />
<path d="M6.6964 2.8001
L6.7440 2.7524
" />
<path d="M6.7440 2.7524
L6.8393 2.7048
" />
<path d="M6.8393 2.7048
L7.0774 2.7048
" />
<path d="M7.0774 2.7048
L7.2202 2.7524
" />
<path d="M8.0298 3.6572
L7.9345 3.7048
" />
<path d="M7.9345 3.7048
L7.7440 3.7048
" />
<path d="M7.7440 3.7048
L7.6488 3.6572
" />
<path d="M7.6488 3.6572
L7.6012 3.5620
" />
<path d="M7.6012 3.5620
L7.6012 3.1810
" />
<path d="M7.6012 3.1810
L7.6488 3.0858
" />
<path d="M7.6488 3.0858
L7.7440 3.0382
" />
<path d="M7.7440 3.0382
L7.9345 3.0382
" />
<path d="M7.9345 3.0382
L8.0298 3.0858
" />
<path d="M8.0298 3.0858
L8.0774 3.1810
" />
<path d="M8.0774 3.1810
L8.0774 3.2762
" />
<path d="M8.0774 3.2762
L7.6012 3.3715
" />
<path d="M8.5060 3.7048
L8.5060 3.0382
" />
<path d="M8.5060 3.2286
L8.5536 3.1334
" />
<path d="M8.5536 3.1334
L8.6012 3.0858
" />
<path d="M8.6012 3.0858
L8.6964 3.0382
" />
<path d="M8.6964 3.0382
L8.7917 3.0382
" />
<path d="M9.1250 3.7048
L9.1250 3.0382
" />
<path d="M9.1250 2.7048
L9.0774 2.7524
" />
<path d="M9.0774 2.7524
L9.1250 2.8001
" />
<path d="M9.1250 2.8001
L9.1726 2.7524
" />
<path d="M9.1726 2.7524
L9.1250 2.7048
" />
<path d="M9.1250 2.7048
L9.1250 2.8001
" />
<path d="M10.0298 3.7048
L10.0298 3.1810
" />
<path d="M10.0298 3.1810
L9.9821 3.0858
" />
<path d="M9.9821 3.0858
L9.8869 3.0382
" />
<path d="M9.8869 3.0382
L9.6964 3.0382
" />
<path d="M9.6964 3.0382
L9.6012 3.0858
" />
<path d="M10.0298 3.6572
L9.9345 3.7048
" />
<path d="M9.9345 3.7048
L9.6964 3.7048
" />
<path d="M9.6964 3.7048
L9.6012 3.6572
" />
<path d="M9.6012 3.6572
L9.5536 3.5620
" />
<path d="M9.5536 3.5620
L9.5536 3.4667
" />
<path d="M9.5536 3.4667
L9.6012 3.3715
" />
<path d="M9.6012 3.3715
L9.6964 3.3239
" />
<path d="M9.6964 3.3239
L9.9345 3.3239
" />
<path d="M9.9345 3.3239
L10.0298 3.2762
" />
<path d="M10.6488 3.7048
L10.5536 3.6572
" />
<path d="M10.5536 3.6572
L10.5060 3.5620
" />
<path d="M10.5060 3.5620
L10.5060 2.7048
" />
<path d="M11.0298 3.7048
L11.0298 2.7048
" />
<path d="M11.0298 2.7048
L11.6012 3.7048
" />
<path d="M11.6012 3.7048
L11.6012 2.7048
" />
<path d="M12.5060 3.0382
L12.5060 3.7048
" />
<path d="M12.0774 3.0382
L12.0774 3.5620
" />
<path d="M12.0774 3.5620
L12.1250 3.6572
" />
<path d="M12.1250 3.6572
L12.2202 3.7048
" />
<path d="M12.2202 3.7048
L12.3631 3.7048
" />
<path d="M12.3631 3.7048
L12.4583 3.6572
" />
<path d="M12.4583 3.6572
L12.5060 3.6096
" />
<path d="M12.9821 3.7048
L12.9821 3.0382
" />
<path d="M12.9821 3.1334
L13.0298 3.0858
" />
<path d="M13.0298 3.0858
L13.1250 3.0382
" />
<path d="M13.1250 3.0382
L13.2679 3.0382
" />
<path d="M13.2679 3.0382
L13.3631 3.0858
" />
<path d="M13.3631 3.0858
L13.4107 3.1810
" />
<path d="M13.4107 3.1810
L13.4107 3.7048
" />
<path d="M13.4107 3.1810
L13.4583 3.0858
" />
<path d="M13.4583 3.0858
L13.5536 3.0382
" />
<path d="M13.5536 3.0382
L13.6964 3.0382
" />
<path d="M13.6964 3.0382
L13.7917 3.0858
" />
<path d="M13.7917 3.0858
L13.8393 3.1810
" />
<path d="M13.8393 3.1810
L13.8393 3.7048
" />
<path d="M14.3155 3.7048
L14.3155 2.7048
" />
<path d="M14.3155 3.0858
L14.4107 3.0382
" />
<path d="M14.4107 3.0382
L14.6012 3.0382
" />
<path d="M14.6012 3.0382
L14.6964 3.0858
" />
<path d="M14.6964 3.0858
L14.7440 3.1334
" />
<path d="M14.7440 3.1334
L14.7917 3.2286
" />
<path d="M14.7917 3.2286
L14.7917 3.5143
" />
<path d="M14.7917 3.5143
L14.7440 3.6096
" />
<path d="M14.7440 3.6096
L14.6964 3.6572
" />
<path d="M14.6964 3.6572
L14.6012 3.7048
" />
<path d="M14.6012 3.7048
L14.4107 3.7048
" />
<path d="M14.4107 3.7048
L14.3155 3.6572
" />
<path d="M15.6012 3.6572
L15.5060 3.7048
" />
<path d="M15.5060 3.7048
L15.3155 3.7048
" />
<path d="M15.3155 3.7048
L15.2202 3.6572
" />
<path d="M15.2202 3.6572
L15.1726 3.5620
" />
<path d="M15.1726 3.5620
L15.1726 3.1810
" />
<path d="M15.1726 3.1810
L15.2202 3.0858
" />
<path d="M15.2202 3.0858
L15.3155 3.0382
" />
<path d="M15.3155 3.0382
L15.5060 3.0382
" />
<path d="M15.5060 3.0382
L15.6012 3.0858
" />
<path d="M15.6012 3.0858
L15.6488 3.1810
" />
<path d="M15.6488 3.1810
L15.6488 3.2762
" />
<path d="M15.6488 3.2762
L15.1726 3.3715
" />
<path d="M16.0774 3.7048
L16.0774 3.0382
" />
<path d="M16.0774 3.2286
L16.1250 3.1334
" />
<path d="M16.1250 3.1334
L16.1726 3.0858
" />
<path d="M16.1726 3.0858
L16.2679 3.0382
" />
<path d="M16.2679 3.0382
L16.3631 3.0382
" />
<path d="M16.4583 3.8001
L17.2202 3.8001
" />
<path d="M17.4107 2.8001
L17.4583 2.7524
" />
<path d="M17.4583 2.7524
L17.5536 2.7048
" />
<path d="M17.5536 2.7048
L17.7917 2.7048
" />
<path d="M17.7917 2.7048
L17.8869 2.7524
" />
<path d="M17.8869 2.7524
L17.9345 2.8001
" />
<path d="M17.9345 2.8001
L17.9821 2.8953
" />
<path d="M17.9821 2.8953
L17.9821 2.9905
" />
<path d="M17.9821 2.9905
L17.9345 3.1334
" />
<path d="M17.9345 3.1334
L17.3631 3.7048
" />
<path d="M17.3631 3.7048
L17.9821 3.7048
" />
<path d="M18.3155 3.7048
L18.8393 3.0382
" />
<path d="M18.3155 3.0382
L18.8393 3.7048
" />
<path d="M19.7440 3.7048
L19.1726 3.7048
" />
<path d="M19.4583 3.7048
L19.4583 2.7048
" />
<path d="M19.4583 2.7048
L19.3631 2.8477
" />
<path d="M19.3631 2.8477
L19.2679 2.9429
" />
<path d="M19.2679 2.9429
L19.1726 2.9905
" />
<path d="M20.3631 2.7048
L20.4583 2.7048
" />
<path d="M20.4583 2.7048
L20.5536 2.7524
" />
<path d="M20.5536 2.7524
L20.6012 2.8001
" />
<path d="M20.6012 2.8001
L20.6488 2.8953
" />
<path d="M20.6488 2.8953
L20.6964 3.0858
" />
<path d="M20.6964 3.0858
L20.6964 3.3239
" />
<path d="M20.6964 3.3239
L20.6488 3.5143
" />
<path d="M20.6488 3.5143
L20.6012 3.6096
" />
<path d="M20.6012 3.6096
L20.5536 3.6572
" />
<path d="M20.5536 3.6572
L20.4583 3.7048
" />
<path d="M20.4583 3.7048
L20.3631 3.7048
" />
<path d="M20.3631 3.7048
L20.2679 3.6572
" />
<path d="M20.2679 3.6572
L20.2202 3.6096
" />
<path d="M20.2202 3.6096
L20.1726 3.5143
" />
<path d="M20.1726 3.5143
L20.1250 3.3239
" />
<path d="M20.1250 3.3239
L20.1250 3.0858
" />
<path d="M20.1250 3.0858
L20.1726 2.8953
" />
<path d="M20.1726 2.8953
L20.2202 2.8001
" />
<path d="M20.2202 2.8001
L20.2679 2.7524
" />
<path d="M20.2679 2.7524
L20.3631 2.7048
" />
<path d="M21.1250 3.7048
L21.1250 3.0382
" />
<path d="M21.1250 3.1334
L21.1726 3.0858
" />
<path d="M21.1726 3.0858
L21.2679 3.0382
" />
<path d="M21.2679 3.0382
L21.4107 3.0382
" />
<path d="M21.4107 3.0382
L21.5060 3.0858
" />
<path d="M21.5060 3.0858
L21.5536 3.1810
" />
<path d="M21.5536 3.1810
L21.5536 3.7048
" />
<path d="M21.5536 3.1810
L21.6012 3.0858
" />
<path d="M21.6012 3.0858
L21.6964 3.0382
" />
<path d="M21.6964 3.0382
L21.8393 3.0382
" />
<path d="M21.8393 3.0382
L21.9345 3.0858
" />
<path d="M21.9345 3.0858
L21.9821 3.1810
" />
<path d="M21.9821 3.1810
L21.9821 3.7048
" />
<path d="M22.4583 3.7048
L22.4583 3.0382
" />
<path d="M22.4583 3.1334
L22.5060 3.0858
" />
<path d="M22.5060 3.0858
L22.6012 3.0382
" />
<path d="M22.6012 3.0382
L22.7440 3.0382
" />
<path d="M22.7440 3.0382
L22.8393 3.0858
" />
<path d="M22.8393 3.0858
L22.8869 3.1810
" />
<path d="M22.8869 3.1810
L22.8869 3.7048
" />
<path d="M22.8869 3.1810
L22.9345 3.0858
" />
<path d="M22.9345 3.0858
L23.0298 3.0382
" />
<path d="M23.0298 3.0382
L23.1726 3.0382
" />
<path d="M23.1726 3.0382
L23.2679 3.0858
" />
<path d="M23.2679 3.0858
L23.3155 3.1810
" />
<path d="M23.3155 3.1810
L23.3155 3.7048
" />
</g><text x="11.8393" y="1.5500"
textLength="1.1071" font-size="1.3333" lengthAdjust="spacingAndGlyphs"
text-anchor="middle" opacity="0" stroke-opacity="0">F</text>
<g class="stroked-text"><desc>F</desc>
<path d="M11.9821 0.9810
L11.6488 0.9810
" />
<path d="M11.6488 1.5048
L11.6488 0.5048
" />
<path d="M11.6488 0.5048
L12.1250 0.5048
" />
</g><path style="fill:none; 
stroke:#AFAFAF; stroke-width:0.1000; stroke-opacity:1; 
stroke-linecap:round; stroke-linejoin:round;fill:none"
d="M 6.8393,0.0500
16.8393,0.0500
16.8393,2.0500
6.8393,2.0500
Z" /> 
</g> 
</svg>

<svg xmlns="http://www.w3.org/2000/svg" width="89.472" height="15.456" viewBox="0 0 23.673 4.089">
    <g style="fill:#000;fill-opacity:1;stroke:#000;stroke-opacity:1;stroke-linecap:round;stroke-linejoin:round">
        <path stroke="none" d="M6.84.05h10v2h-10Z" style="fill:#f2eda1;fill-opacity:1;stroke:none;fill-rule:evenodd"/>
    </g>
    <g style="fill:none;stroke:#afafaf;stroke-width:.15;stroke-opacity:1;stroke-linecap:round;stroke-linejoin:round">
        <g class="stroked-text">
            <path d="M.649 2.705v.714M.649 3.42.6 3.561M.601 3.562l-.095.095M.506 3.657l-.143.048M.363 3.705H.268M1.601 3.705h-.476M1.125 3.705v-1M2.506 3.61l-.048.047M2.458 3.657l-.143.048M2.316 3.705H2.22M2.22 3.705l-.143-.048M2.077 3.657l-.095-.095M1.982 3.562l-.047-.095M1.935 3.467l-.048-.19M1.887 3.276v-.143M1.887 3.133l.048-.19M1.935 2.943l.047-.095M1.982 2.848l.095-.096M2.077 2.752l.143-.047M2.22 2.705h.095M2.316 2.705l.142.047M2.458 2.752l.048.048M2.935 3.705v-1M2.935 2.705h.38M3.316 2.705l.095.047M3.41 2.752l.048.048M3.458 2.8l.048.095M3.506 2.895v.143M3.506 3.038l-.048.095M3.458 3.133l-.047.048M3.41 3.181l-.095.048M3.316 3.229h-.381M4.506 3.61l-.048.047M4.458 3.657l-.143.048M4.316 3.705H4.22M4.22 3.705l-.143-.048M4.077 3.657l-.095-.095M3.982 3.562l-.048-.095M3.935 3.467l-.048-.19M3.887 3.276v-.143M3.887 3.133l.047-.19M3.935 2.943l.047-.095M3.982 2.848l.095-.096M4.077 2.752l.143-.047M4.22 2.705h.096M4.316 2.705l.142.047M4.458 2.752l.048.048M5.268 3.181l.143.048M5.41 3.229l.048.047M5.458 3.276l.048.096M5.506 3.372v.142M5.506 3.514l-.048.096M5.458 3.61l-.047.047M5.41 3.657l-.095.048M5.316 3.705h-.381M4.935 3.705v-1M4.935 2.705h.333M5.268 2.705l.095.047M5.363 2.752l.048.048M5.41 2.8l.048.095M5.458 2.895v.095M5.458 2.99l-.047.096M5.41 3.086l-.047.047M5.363 3.133l-.095.048M5.268 3.181h-.333M5.696 3.8h.762M6.649 3.657l.143.048M6.792 3.705h.238M7.03 3.705l.095-.048M7.125 3.657l.048-.047M7.173 3.61l.047-.096M7.22 3.514V3.42M7.22 3.42l-.047-.096M7.173 3.324l-.048-.048M7.125 3.276 7.03 3.23M7.03 3.229l-.19-.048M6.84 3.181l-.096-.048M6.744 3.133l-.048-.047M6.696 3.086 6.65 2.99M6.649 2.99v-.095M6.649 2.895l.047-.095M6.696 2.8l.048-.048M6.744 2.752l.095-.047M6.84 2.705h.237M7.077 2.705l.143.047M8.03 3.657l-.095.048M7.935 3.705h-.191M7.744 3.705l-.095-.048M7.649 3.657 7.6 3.562M7.601 3.562v-.381M7.601 3.181l.048-.095M7.649 3.086l.095-.048M7.744 3.038h.19M7.935 3.038l.095.048M8.03 3.086l.047.095M8.077 3.181v.095M8.077 3.276l-.476.096M8.506 3.705v-.667M8.506 3.229l.048-.096M8.554 3.133l.047-.047M8.601 3.086l.095-.048M8.696 3.038h.096M9.125 3.705v-.667M9.125 2.705l-.048.047M9.077 2.752l.048.048M9.125 2.8l.048-.048M9.173 2.752l-.048-.047M9.125 2.705V2.8M10.03 3.705V3.18M10.03 3.181l-.048-.095M9.982 3.086l-.095-.048M9.887 3.038h-.19M9.696 3.038l-.095.048M10.03 3.657l-.095.048M9.935 3.705h-.239M9.696 3.705l-.095-.048M9.601 3.657l-.047-.095M9.554 3.562v-.095M9.554 3.467l.047-.095M9.601 3.372l.095-.048M9.696 3.324h.239M9.935 3.324l.095-.048M10.649 3.705l-.095-.048M10.554 3.657l-.048-.095M10.506 3.562v-.857M11.03 3.705v-1M11.03 2.705l.571 1M11.601 3.705v-1M12.506 3.038v.667M12.077 3.038v.524M12.077 3.562l.048.095M12.125 3.657l.095.048M12.22 3.705h.143M12.363 3.705l.095-.048M12.458 3.657l.048-.047M12.982 3.705v-.667M12.982 3.133l.048-.047M13.03 3.086l.095-.048M13.125 3.038h.143M13.268 3.038l.095.048M13.363 3.086l.048.095M13.41 3.181v.524M13.41 3.181l.048-.095M13.458 3.086l.096-.048M13.554 3.038h.142M13.696 3.038l.096.048M13.792 3.086l.047.095M13.84 3.181v.524M14.316 3.705v-1M14.316 3.086l.095-.048M14.41 3.038h.191M14.601 3.038l.095.048M14.696 3.086l.048.047M14.744 3.133l.048.096M14.792 3.229v.285M14.792 3.514l-.048.096M14.744 3.61l-.048.047M14.696 3.657l-.095.048M14.601 3.705h-.19M14.41 3.705l-.095-.048M15.601 3.657l-.095.048M15.506 3.705h-.19M15.316 3.705l-.096-.048M15.22 3.657l-.047-.095M15.173 3.562v-.381M15.173 3.181l.047-.095M15.22 3.086l.095-.048M15.316 3.038h.19M15.506 3.038l.095.048M15.601 3.086l.048.095M15.649 3.181v.095M15.649 3.276l-.476.096M16.077 3.705v-.667M16.077 3.229l.048-.096M16.125 3.133l.048-.047M16.173 3.086l.095-.048M16.268 3.038h.095M16.458 3.8h.762M17.41 2.8l.048-.048M17.458 2.752l.096-.047M17.554 2.705h.238M17.792 2.705l.095.047M17.887 2.752l.047.048M17.935 2.8l.047.095M17.982 2.895v.095M17.982 2.99l-.047.143M17.935 3.133l-.572.572M17.363 3.705h.62M18.316 3.705l.523-.667M18.316 3.038l.523.667M19.744 3.705h-.571M19.458 3.705v-1M19.458 2.705l-.095.143M19.363 2.848l-.095.095M19.268 2.943l-.095.047M20.363 2.705h.095M20.458 2.705l.096.047M20.554 2.752l.047.048M20.601 2.8l.048.095M20.649 2.895l.047.19M20.696 3.086v.238M20.696 3.324l-.047.19M20.649 3.514l-.048.096M20.601 3.61l-.047.047M20.554 3.657l-.096.048M20.458 3.705h-.095M20.363 3.705l-.095-.048M20.268 3.657l-.048-.047M20.22 3.61l-.047-.096M20.173 3.514l-.048-.19M20.125 3.324v-.238M20.125 3.086l.048-.19M20.173 2.895l.047-.095M20.22 2.8l.048-.048M20.268 2.752l.095-.047M21.125 3.705v-.667M21.125 3.133l.048-.047M21.173 3.086l.095-.048M21.268 3.038h.143M21.41 3.038l.096.048M21.506 3.086l.048.095M21.554 3.181v.524M21.554 3.181l.047-.095M21.601 3.086l.095-.048M21.696 3.038h.143M21.84 3.038l.095.048M21.935 3.086l.047.095M21.982 3.181v.524M22.458 3.705v-.667M22.458 3.133l.048-.047M22.506 3.086l.095-.048M22.601 3.038h.143M22.744 3.038l.095.048M22.84 3.086l.047.095M22.887 3.181v.524M22.887 3.181l.047-.095M22.935 3.086l.095-.048M23.03 3.038h.143M23.173 3.038l.095.048M23.268 3.086l.047.095M23.316 3.181v.524"/>
        </g>
        <g class="stroked-text">
            <path d="M11.982.981h-.333M11.649 1.505v-1M11.649.505h.476"/>
        </g>
        <path d="M6.84.05h10v2h-10Z" style="stroke:#afafaf;stroke-width:.1;stroke-opacity:1;stroke-linecap:round;stroke-linejoin:round;fill:none"/>
    </g>
</svg>
